X: 1
T: Thistle of Scotland
R: March
O: Scotland
M: C
L: 1/8
K: A
EF |\
"A"A2Ac A2"D"AF | "A"E2EF "E7"E2A>B | "A"c2BA A2ec | "B7"B2B>c "E7"B2EF |\
"A"A2Ac A2"D"AF | "A"E2E>F "E7"E2A>B | "A"c<ece "E7"E2c>B | "A"A2"D"A>B "A"A2 |]
AB |\
"A"c2ce  "A7"c2BA | "D"F2FA  "E7"E2A>B | "A"c2BA e2Ac | "B7"B2B>c "E7"B2EF |\
"A"A>Bce "A7"c2BA | "D"F<AFA "E7"E2A>B | "A"c<ece "E7"E2c>B | "A"A2"D"A>B "A"A2 |]
